X:1
T:Title
%%score ( 1 2 ) 3
L:1/8
Q:1/4=95
M:6/8
K:F
V:1 treble nm="Grand Piano, Soprano"
V:2 treble 
V:3 bass nm="Choir Pad, Save, Oh, Save!, C. Brooks"
V:1
 [FA][FA][FA] [FB]2 [FB] | [FA]3 [CF]3 | [Fc][Fc][Fc] [EB]2 [FA] | [FA]3 [EG]3 | %4
w: By~Daniel~Otis~Teasley * * * *||||
 [DF][DF][DF] [^CE]2 [=B,D] | [^CE]6 | [B,D][B,D][B,D] [CE]2 [B,D] | [A,C]3 [CF]3 | %8
w: ||||
 [FA][FA][FA] [FA]2 [EG] | [CF]6 | [Ac]3- [Ac][FA][CF] | [Ac]3- [Ac]/ z/ [FA][CF] | %12
w: ||||
 [EG]3- [EG][DF][EG] | [FA]3 [Ac]3 | [Bd]3- [Bd][FB][Bd] | [Ac]3- [Ac]/ z/ [FA][CF] | %16
w: ||||
 [EG]3- [EG][DF][CG] | F-[DF-][^CF-] [=CF]3- | [CF]6 |] %19
w: |||
V:2
 x6 | x6 | x6 | x6 | x6 | x6 | x6 | x6 | x6 | x6 | x6 | x6 | x6 | x6 | x6 | x6 | x6 | .C3 z3 | %18
 x6 |] %19
V:3
 [F,C][F,C][F,C] [F,D]2 [F,^C] | [F,C]3 [F,A,]3 | [A,C][A,C][A,C] [G,C]2 [F,C] | [C,C]3 [C,B,]3 | %4
 [D,A,][D,A,][D,A,] [A,,A,]2 [A,,A,] | [A,,A,]6 | [B,,F,][B,,F,][B,,F,] [B,,F,]2 [B,,F,] | %7
 F,3 [F,A,]3 | [C,C][C,C][C,C] [C,C]2 [C,B,] | [F,A,]6 | [F,C][F,C][F,C] [F,C][F,C][F,A,] | %11
 [F,C][F,C][F,C] [F,C][F,C][F,A,] | [C,C][C,C][C,C] [C,C][C,A,][C,C] | %13
 [F,C][F,C][F,C][K:treble] [F,F]3 | [B,F][B,F][B,F] [B,F][B,D][B,F] | %15
 [F,F][F,F][F,F] [F,F][F,C][F,A,] | [C,B,][C,B,][C,B,] [C,B,][C,A,][C,B,] | %17
 [F,A,][F,B,][F,B,] [F,A,]3- | [F,A,]6 |] %19

